X:1703
T:The Shaskeen Clog
M:C|
L:1/8
N:"collected by McFadden"
B:O'Neill's 1703
R:Hornpipe
Z:"Transcribed by Bob Safranek, rjs@gsp.org"
K:G
   D>F |   G3   B A2   A>c | d>ge>d c>AA>c | B>dB>G (3ABc A>F | G>BA>G F>DE>F |
         (TGFG)>B A2 (3ABc | d>ge>d c>AA>g | Tfef>a   e>cA>c  | B>GA>F G2    :|
|: B>c |  dg{a}gf g2   f>g | a>ba>g f>dd>c | B>cB>G (3ABc A>F | G>BA>G F>D D2 |
          dg{a}gf g2   f>g | a>ba>g f>dd>e | Tfef>a   e>cA>c  | B>GA>F G2    :|


